!!!!SEGMENT: pl-wtm--1124-3622--001-001_rozycki-ludomir--5-preludes-op-2-no-1.krn
!!!cenid: 19xx:128
!!!COM: Różycki, Ludomir
!!!COM-rismID: pe50045573
!!!CDT: 1883-1953
!!!CNT: Polish
!!!GTL: 5 Préludes op. 2
!!!OTL: No. 1.
!!!OMV: 001
!!!PDT: 1924
!!!AGN: Secular; Prelude
!!!YEC: Copyright 2022 Narodowy Instytut Fryderyka Chopina (https://polishscores.org)
!!!YEM: License CC-BY-4.0 (https://creativecommons.org/licenses/by/4.0)
!!!SMS-siglum: PL-Wtm
!!!SMS-shelfmark: 1124 3622
!!!SMS-variant:
!!!SMS-altvar:
!!!SMS-shelfwork: 001-001 G
!!!NIFC-rismSourceID: 1001214520
!!!NIFC-rismChildID: 1001214520
!!!NIFC-islandoraID: pl-wtm:72703
!!!URL-pdf-islandora: https://repozytorium.nifc.pl/islandora/object/pl-wtm%3A72703/datastream/PDF/view
!!!URL-scan: https://polish.musicsources.pl/pl/lokalizacje/galeria/druki-muzyczne/18454/3 @EN{Scan on Polish Music Sources Website} @PL{Skany w portalu Dziedzictwo Muzyki Polskiej w otwartym dostępie}
!!!IIIF:
!!!ONB-nifc:
!!!AIN: 1 piano
!!!key: A
**kern	**fing	**kern	**fing	**dynam
*part1	*	*part1	*	*part1
*staff2	*	*staff1	*	*staff1/2
*group1	*	*group1	*	*
*ICklav	*	*ICklav	*	*
*Ipiano	*	*Ipiano	*	*
*I"Piano.	*	*I"Piano.	*	*
*	*	*I'	*	*
*clefF4	*	*clefG2	*	*
*k[f#c#g#]	*	*k[f#c#g#]	*	*
*A:	*	*A:	*	*
*M9/8	*	*M9/8	*	*
=1	=1	=1	=1	=1
*MM104	*	*MM104	*	*
*	*^	*	*	*
!!LO:TX:a:t=Andante con moto. [quarter]=104
8r	.	.	8%9r	.	.
*ped	*	*	*	*	*
(8AA/L	(5	5	.	.	p
8E/J	2	2	.	.	.
8c#\L	1-	1	.	.	.
8d\	-1	2	.	.	.
8c#\J	2	3	.	.	.
*Xped	*	*	*	*	*
8B\L	1	1	.	.	.
8G#\	2	2	.	.	.
8F#\J)	3)	3	.	.	.
*	*v	*v	*	*	*
=2	=2	=2	=2	=2
*ped	*	*	*	*
8r	.	8%9r	.	.
(8AA/L	.	.	.	.
8E/J	.	.	.	.
8c#\L	.	.	.	.
8d\	.	.	.	.
8c#\J	.	.	.	.
*Xped	*	*	*	*
8B\L	.	.	.	.
8G#\	.	.	.	.
8F#\J)	.	.	.	.
=3	=3	=3	=3	=3
*ped	*	*	*	*
8r	.	([4.cc#\	2	mf
*	*below	*	*	*
(8AA/L	5	.	.	.
8E/J	2	.	.	.
8e\L	1	8cc#\L]	.	.
8f#\	2	8dd\	.	.
8e\J	3	8cc#\J	.	.
*Xped	*	*	*	*
8d\L	1	8b\L	.	<
8G#\	2	8dd\	.	.
8F#\J)	3	8ff#\J	5	[
!!LO:LB:g=original
=4	=4	=4	=4	=4
*ped	*	*	*	*
8r	.	[4.ee\	4	.
(8AA/L	.	.	.	.
8E/J	.	.	.	.
8c#\L	.	8ee\L]	.	.
8d\	.	8ff#\	.	>
8c#\J	.	8ee\J	.	.
*Xped	*	*	*	*
8B\L	.	8dd\L	.	.
8G#\	.	8b\	.	.
8F#\J)	.	8cc#\J	.	]
=5	=5	=5	=5	=5
*ped	*	*	*	*
8r	.	[4.a/	1	.
(8AA/L	.	.	.	.
8E/J	.	.	.	.
8c#\L	.	8a/L]	.	.
8d\	.	8g#/	3	.
8c#\J	.	8f#/J	.	.
*Xped	*	*	*	*
8B\L	.	8e/L	.	.
8G#\	.	8f#/	.	<
8F#\J)	.	8b/J	.	.
=6	=6	=6	=6	=6
*ped	*	*	*	*
8r	.	8a\L	1	.
(8AA/L	.	8cc#\	.	[
8E/J	.	8ff#\J	.	.
!	!	!LO:TX:t=P:problem:łuczek nad palcowaniem	!	!
8c#\L	.	[4.ee\)	31	.
8d\	.	.	.	.
8c#\J	.	.	.	.
*Xped	*	*	*	*
8B\L	.	8ee\L]	.	<
8G#\	.	8ff#\	.	.
8F#\J)	.	8gg#\J	.	[[
=7	=7	=7	=7	=7
*ped	*	*	*	*
(8FF#/L	5	[4.aa\	4	.
8C#/	3	.	.	.
8A/J	.	.	.	.
8F#\L	5	(8aa\L]	.	.
8c#\	3	8gg#\	.	.
8a\J	.	8ff#\J	.	.
*ped	*	*	*	*
8C#\L	5	8ee\L	.	.
8G#\	3	8dd#X\	3	.
8e\J)	.	8cc#\J)	.	.
!!LO:LB:g=original
=8	=8	=8	=8	=8
*ped	*	*	*	*
(8DD/L	5	(8ff#\L	3	.
8AA/	2	8gg#\	.	.
8F#/J	.	8ff#\J	.	.
8D\L	5	8ee\L	.	.
8A\	2	8dd\	.	.
8f#\J	.	[8cc#\J)	3	.
*ped	*	*	*	*
8AA\L	5	8cc#\L]	.	.
8E\	2	(8b\	.	.
8c#\J)	.	8a\J	.	.
=9	=9	=9	=9	=9
*ped	*	*	*	*
(8BBB/L	5	2.cc#\)	.	.
8FF#/	2	.	.	.
8C#/J	.	.	.	.
8BB\L	5	.	.	.
8F#\	.	.	.	.
8c#\J	1	.	.	.
4.B\)	2	(8d/L	.	.
.	.	8f#/	.	.
*Xped	*	*	*	*
.	.	8cc#/J	.	.
=10	=10	=10	=10	=10
*ped	*	*	*	*
(8BB\L	5	2.b\)	.	<
8F#\	2	.	.	.
8c#\J	.	.	.	.
*clefG2	*	*	*	*
8B/L	5	.	.	.<
8f#/	2	.	.	.
8cc#/J	.	.	.	.
*ped	*	*	*	*
8b/L	2	(8dd\L	1	.
8a/	3	8ffn\	.	.
8g#/J	4	8ccc#\J	.	[[
=11	=11	=11	=11	=11
*ped	*	*	*	*
8gn/L	1	8bb\L	.	f
8f#/	.	8ee\	.	.
8e/J	.	8cc#\J	.	.
*clefF4	*	*	*	*
8Gn\L	1	8b/L	5	.
8F#\	.	8e/	.	.
*Xped	*	*	*	*
8E\J	.	8c#/J	1	>
4.A 4.D\)	4	4.fn 4.d/)	2 4	.
!!LO:LB:g=original
=12	=12	=12	=12	=12
4.Gn 4.AA#X/	1 5	4.e 4.cn/	1 3	.
*ped	*	*	*	*
2.F#X 2.GG# 2.EE/	1 3 5	2.d 2.B/	1 2	p
*Xped	*	*	*	*
=13	=13	=13	=13	=13
*	*	*^	*	*
!!LO:TX:a:i:t=poco più mosso
8r	.	2.c#/	2.ryy	2	.
*ped	*	*	*	*	*
(8FF#/L	5	.	.	.	.
8C#/J	3	.	.	.	mf
8A\L	.	.	.	.	.
8G#\	.	.	.	.	.
*Xped	*	*	*	*	*
8F#\J	.	.	.	.	.
4.BB/)	.	(16%3f#/L	4.d#X 4.A\	1 3 4	.
.	.	16%3g#/J	.	.	.
=14	=14	=14	=14	=14	=14
*ped	*	*	*	*	*
8r	.	2.c#/)	2.ryy	.	.
(8FF#/L	.	.	.	.	.
8C#/J	.	.	.	.	.
8A\L	.	.	.	.	.
8G#\	.	.	.	.	.
*Xped	*	*	*Xtuplet	*	*
8F#\J	.	.	.	.	.
4.BB/)	.	(16%3f#/L	8%3d#X 8%3A\	.	.
.	.	16%3g#/J	.	.	.
=15	=15	=15	=15	=15	=15
*ped	*	*	*	*	*
(8EE/L	5	4.f#/	2.b: 2.B:\	1 3 5	.
8BB/	.	.	.	.	.
8A/J	1	.	.	.	.
*Xped	*	*	*	*	*
8G#\L	2	4.e/)	.	.	.
8F#\	.	.	.	.	.
8E\J	.	.	.	.	.
8d\L	1	(8b/L	4.f#\	2 4	.
8c#\	.	8d/	.	.	.
8B\J)	.	8cc#/J	.	.	.
!!LO:LB:g=original
=16	=16	=16	=16	=16	=16
*ped	*	*	*	*	*
(8EE/L	.	4.f#/	2.b: 2.B:\	.	f
8BB/	.	.	.	.	.
8A/J	.	.	.	.	.
*Xped	*	*	*	*	*
8G#\L	.	4.e/)	.	.	.
8F#\	.	.	.	.	.
8E\J	.	.	.	.	.
8d\L	.	(8b/L	4.f#\	.	.
8c#\	.	8d/	.	.	.
8B\J)	.	8cc#/J	.	.	.
=17	=17	=17	=17	=17	=17
*ped	*	*	*	*	*
(8EE/L	.	2.ee 2.d/	4.cc#\	.	.
8BB/	.	.	.	.	.
8A/J	.	.	.	.	.
*Xped	*	*	*	*	*
8G#\L	.	.	4.b\)	.	.
8F#\	.	.	.	.	.
8E\J	.	.	.	.	.
*	*	*tuplet	*	*	*
8d\L	.	(16%3ff#/L	4.dd\	.	.
8c#\	.	.	.	.	.
.	.	16%3ccc#/J	.	.	.
8B\J)	.	.	.	.	.
*	*	*v	*v	*	*
*clefG2	*	*	*	*
=18	=18	=18	=18	=18
*ped	*	*	*	*
!	!	!LO:TUP:a	!	!
(8e/L	1	16%3bb\L	1	ff <
8f#/	3	.	.	.
.	.	16%3fff#\J	5	.
8g#/J	.	.	.	.
8a/L	1	8eee\L	.	.
8a#X/	4	8ddd\	.	.
8b/J	3	8ccc#\J	.	.
8cc#\L	2	8bb\L	1	.
8dd\	1	8aa\	3	.
8ee\J)	2	8gg#\J)	.	[[
=19	=19	=19	=19	=19
*ped	*	*	*	*
4gg#: 4cc#: 4f#:\	.	(8aa\L	1	fff
.	.	8aaa\	5	.
8r	.	8fff#\J)	3	.
*ped	*	*	*	*
4ee: 4a: 4d:/	.	(8ff#\L	.	.
.	.	8fff#\	.	.
8r	.	8ddd\J)	.	.
*ped	*	*	*	*
4cc#: 4f#: 4B:/	.	(8dd\L	.	.
.	.	8ddd\	.	.
8r	.	8bb\J)	.	.
*clefF4	*	*	*	*
!!LO:PB:g=original
=20	=20	=20	=20	=20
*ped	*	*	*	*
4g#: 4c#: 4F#:\	.	(8a\L	.	.
.	.	8aa\	.	.
8r	.	8ff#\J)	.	.
*ped	*	*	*	*
4e: 4A: 4D:\	.	(8f#\L	.	.
.	.	8ff#\	.	.
8r	.	8dd\J)	.	.
*ped	*	*	*	*
4c#: 4F#: 4BB:\	.	(8d/L	.	.
!	!	!	!	!LO:HP:t=diminuendo
.	.	8dd/	.	>
8r	.	8b/J)	.	.
*	*	*clefF4	*	*
=21	=21	=21	=21	=21
*ped	*	*	*	*
4G#: 4C#: 4FF#:/	.	(8A\L	.	.
.	.	8a\	.	>
8r	.	8f#\J)	.	.
*ped	*	*	*	*
4E: 4AA: 4DD:/	.	(8F#\L	.	.
.	.	8f#\	.	.
8r	.	8d\J)	.	.
*ped	*	*	*	*
4C#: 4FF#: 4BBB:/	.	(8D\L	.	.
.	.	8d\	.	]
8r	.	8B\J)	.	.
=22	=22	=22	=22	=22
*ped	*	*	*	*
8EEE/L	.	(8GG#/L	.	f
8EE/	1	8BB/	.	.
8FF#/J	3	8G#/J)	.	.
!!LO:TX:a:i:t=accelerando sempre-:dur=15e:ext=ud:problem:text with extention lines
4.GG#^/	.	(8BB\L	.	.
.	.	8D\	.	.
.	.	8B\J)	.	.
!	!	!	!	!LO:HP:a=2
(4AA/	1	(8D\L	.	>
.	.	8Fn\	.	.
8AA#X/)	2	8d\J)	.	]
=23	=23	=23	=23	=23
*ped	*	*	*	*
8EEE/L	.	(8GG#/L	.	.
8EE/	.	8BB/	.	.
*Xped	*	*	*	*
8FF#/J	.	8G#/J)	.	.
4.GG#^/	.	(8BB\L	.	.
.	.	8D\	.	.
.	.	8B\J)	.	.
!	!	!	!	!LO:HP:a=2
(4AA/	.	(8D\L	.	>
.	.	8Fn\	.	.
8AA#X/)	.	8d\J)	.	]
!!LO:LB:g=original
=24	=24	=24	=24	=24
*ped	*	*	*	*
!!LO:TX:a:i:t=accelerando.-:dur=27e:ext=ud:problem:text with extention lines
!	!	!	!	!LO:HP:t=crescendo
(>8EEE/L	.	(8GG#/L	.	<
8EE/	1	8BB/	.	.
8FF#/J	3	8G#/J)	.	.
8GG#/L	.	(8BB\L	.	.
8AA/	.	8D\	.	.
8AA#X/J	4	8B\J)	.	.
8BB/L	3	(8D\L	.	.
8C#/	.	8Fn\	.	.
8D/J)	.	8d\J)	.	.
*	*	*clefG2	*	*
=25	=25	=25	=25	=25
*ped	*	*	*	*
(8EE/L	.	(8G#/L	.	.
8E/	1	8B/	.	.
8F#/J	3	8g#/J)	.	.
8G#\L	.	(8B/L	.	.
8A\	.	8d/	.	.
8A#X\J	4	8b/J)	.	.
8B\L	3	(8d/L	.	.
8c#\	.	8fn/	.	.
8d\J)	.	8dd/J)	.	.
*clefG2	*	*	*	*
=26	=26	=26	=26	=26
*ped	*	*	*	*
(8E/L	.	(8g#\L	.	.
8e/	.	8b\	.	.
8f#/J	.	8gg#\J)	.	.
8g#/L	.	(8b\L	.	.
8a/	.	8dd\	.	.
8a#X/J	.	8bb\J)	.	.
8b\L	.	(8dd\L	.	.
8cc#\	.	8ffn\	.	.
8dd\J)	.	8ddd\J)	.	.
=27	=27	=27	=27	=27
*ped	*	*8va	*	*
(8e\L	.	(8gg#\L	.	.
8ee\	.	8bb\	.	.
8ff#\J	.	8ggg#\J)	.	.
8gg#\L	.	(8bb\L	.	.
8aa\	.	8ddd\	.	.
8aa#X\J	.	8bbb\J)	.	.
8bb\L	.	(8ddd\L	.	.
8ccc#\	.	8fffn\	.	.
8ddd\J)	.	8dddd\J)	.	.
!!LO:LB:g=original
=28	=28	=28	=28	=28
*Xtuplet	*	*	*	*
16%3b\L	5	(8ffff#\L	5	.
.	.	8dddd\	.	.
16%3ddd\J	1	.	.	.
.	.	8ggg#\J)	.	.
16%3a#X\L	.	(8eeee\L	4	.
.	.	8cccc#\	2	.
16%3ccc#\J	.	.	.	.
.	.	8fff##X\J)	.	.
16%3b\L	.	(8ffff#\L	.	.
.	.	8dddd\	.	.
16%3ddd\J	.	.	.	.
.	.	8ggg#\J)	.	.
=29	=29	=29	=29	=29
16%3a#X\L	.	(8eeee\L	.	.
.	.	8cccc#\	.	.
16%3ccc#\J	.	.	.	.
.	.	8fff##X\J)	.	.
16%3b\L	.	(8ffff#\L	.	.
.	.	8dddd\	.	.
16%3ddd\J	.	.	.	.
.	.	8ggg#\J)	.	.
16%3a#\L	.	(8eeee\L	.	.
.	.	8cccc#\	.	.
16%3ccc#\J	.	.	.	.
.	.	8fff##X\J)	.	.
=30	=30	=30	=30	=30
*8va	*	*	*	*
*ped	*	*	*	*
4fffn 4ddd 4aa 4ffn\	.	4aaaa 4ffffn 4dddd 4aaa\	.	fff
*X8va	*	*X8va	*	*
*Xped	*	*	*	*
8r	.	8r	.	.
*clefF4	*	*	*	*
!!LO:TX:a:B:t=Lento.
4.c#\	.	4.g# 4.e#X/	.	.
4.A#X\	.	4.a#X 4.e# 4.c#/	.	.
=31||	=31||	=31||	=31||	=31||
*M3/4	*	*M3/4	*	*
!!LO:TX:a:i:t=più mosso
(2GG# 2EE/	.	(2b 2f# 2d/	5	p >
4E#X 4C#/)	.	4an 4e#X 4c#/)	4	]
!!LO:LB:g=original
=32	=32	=32	=32	=32
(2GG# 2EEn/	.	(2b 2f# 2d/	.	>
4E#X 4C#/)	.	4a 4e#X 4c#/)	.	]
=33	=33	=33	=33	=33
!!LO:TX:a:i:t=rall.:dur=6q:ext=ud:problem:text with extention lines
(2GG# 2EEn/	.	(2b 2f# 2d/	.	>
4Gn 4C#\)	.	4a#X 4e#X 4c#/)	.	]
=34	=34	=34	=34	=34
*^	*	*	*	*
*ped	*	*	*	*	*
4rB	2GG#: 2EE: 2EEE:/	3 1 5	2.dd: 2.f#X: 2.d:/	.	.
4F#/	.	1	.	.	.
4G#/	4ryy	1	.	.	.
*Xped	*	*	*	*	*
*v	*v	*	*	*	*
=35||	=35||	=35||	=35||	=35||
*M9/8	*	*M9/8	*	*
!!LO:TX:a:B:t=Tempo I.
!	!	!	!	!LO:DY:b
8r	.	([4.cc#\	2	mf
*ped	*	*	*	*
!	!	!	!	!LO:DY:a=2
(8AA/L	5	.	.	p
8E/J	2	.	.	.
8e\L	1	8cc#\L]	.	.
8f#\	2	8dd\	.	.
8e\J	3	8cc#\J	.	.
*Xped	*	*	*	*
8d\L	1	8b\L	.	<
8G#\	.	8dd\	.	.
8F#\J)	.	8ff#\J	.	[
=36	=36	=36	=36	=36
*ped	*	*	*	*
8r	.	[4.ee\	4	.
(8AA/L	.	.	.	.
8E/J	.	.	.	.
8c#\L	.	8ee\L]	.	.
8d\	.	8ff#\	.	>
8c#\J	.	8ee\J	.	.
*Xped	*	*	*	*
8B\L	.	8dd\L	.	.
8G#\	.	8b\	.	]
8F#\J)	.	8cc#\J	.	.
!!LO:LB:g=original
=37	=37	=37	=37	=37
*ped	*	*	*	*
8r	.	[4.a/	1	.
(8AA/L	.	.	.	.
8E/J	.	.	.	.
8c#\L	.	8a/L]	.	.
8d\	.	8g#/	3	.
8c#\J	.	8f#/J	.	.
*Xped	*	*	*	*
8B\L	.	8e/L	.	<
8G#\	.	8f#/	.	.
8F#\J)	.	8b/J	.	[
=38	=38	=38	=38	=38
*ped	*	*	*	*
8r	.	8a\L	1	.
(8AA/L	.	8cc#\	.	.
8E/J	.	8ff#\J)	.	.
!	!	!LO:TX:t=P:problem:łuczek nas palcowaniem	!	!
8c#\L	.	[4.ee\	31	.
8d\	.	.	.	.
8c#\J	.	.	.	.
*Xped	*	*	*	*
8B\L	.	8ee\L]	.	.
8G#\	.	(8ff#\	.	.
8F#\J)	.	8gg#\J	.	.
=39	=39	=39	=39	=39
*ped	*	*	*	*
(8FF#/L	.	[4.aa\	.	.
8C#/	3	.	.	.
8A/J	.	.	.	.
8F#\L	.	8aa\L]	.	.
8c#\	.	8gg#\	.	.
8a\J	.	8ff#\J	.	.
*ped	*	*	*	*
8C#\L	.	8ee\L	1	.
8G#\	.	8dd#X\	3	.
8e\J)	.	8cc#\J)	.	.
=40	=40	=40	=40	=40
*ped	*	*	*	*
(8DD/L	.	(8ff#\L	3	.
8AA/	2	8gg#\	.	.
8F#/J	.	[8ff#\J	.	.
8D\L	.	8ff#\L]	.	>
8A\	.	8ee\	.	.
8f#\J	.	8dd\J	.	.
.	.	16qqcc#/LL	2	.
.	.	16qqdd/JJ	4	.
*ped	*	*	*	*
8AA\L	.	8cc#\L	3	.
8E\	.	8b\	.	]
8c#\J)	.	8a\J)	.	.
!!LO:LB:g=original
=41	=41	=41	=41	=41
*ped	*	*	*	*
!	!	!LO:TX:b:i:t=smorzando	!	!
(8BBB/L	.	2.cc#\	.	.
8FF#/	2	.	.	.
8C#/J	.	.	.	.
8BB\L	.	.	.	.
8F#\	.	.	.	.
8c#\J)	.	.	.	.
*ped	*	*	*	*
!!LO:TX:a:i:t=rall.
4.G# 4.E\	.	[8d/L	.	.
.	.	[8f# 8d/_	.	.
.	.	[8cc#J 8f#_ 8d/]	4	.
=42	=42	=42	=42	=42
*ped	*	*	*	*
(8AAA/L	.	[2.ee 2.cc#_> 2.f#/_	5	.
8AA/	5	.	.	.
!!LO:TX:b:i:t=rall.
8E/J	.	.	.	.
8d\L	1	.	.	.
8c#\	.	.	.	.
8A\J	.	.	.	.
*tuplet	*	*	*	*
!LO:TUP:a	!	!	!	!
16%3F#\L	4	4.ee_ 4.cc#_> 4.f#/_	.	.
[16%3E\J)	1	.	.	.
=43	=43	=43	=43	=43
2.E_ [2.AA/	.	[2.aa 2.ee_ 2.cc#_ 2.f#\_	.	.
4.E] 4.AA/]	.	4.aa] 4.ee] 4.cc#] 4.f#\]	.	.
*Xped	*	*	*	*
==	==	==	==	==
*-	*-	*-	*-	*-
!!!system-decoration: {(g1)}
!!!RDF**kern: i = editorial accidental
!!!RDF**kern: > = above
!!!RDF**kern: < = below
!!!RDF**kern: N = linked
!!!RDF**dynam: > = "dim.", fontstyle= "italic"
!!!ENC: Andrzej Gręziak
!!!EED: Katarzyna Serwa
!!!END: 2023-10-11
!!!EEV: 2023-10-23
